X:1
T:Title
%%score 1 { 2 | 3 }
L:1/8
Q:1/4=98
M:6/8
K:G
V:1 treble nm="Grand Piano, Soprano"
V:2 treble nm="Choir Pad, Into Thy Hands, O Lord"
V:3 bass 
V:1
 G [GB]2 [GB] [FB]2 | [FA] G2- G2- G/ z/ | G [EG]2- [EG] [CE]2- | [CE] [B,D]2- [B,D]2- [B,D]/ z/ | %4
w: By~John~Harrison~Tenney * * *||||
 [DG] [DF]2 [FA] [Ac]2 | [GB] [GB]2- [GB] [FA]2 | [DA] [DB]2 [Dc] [Dd]2 | [DB] [DB]2- [DB] [DA]2 | %8
w: ||||
 [DA] [DB]2- [DB] [^DA]2- | [DA] [EG]2- [EG]2- [EG]/ z/ | [CE] [B,D]2- [B,D] [CA]2- | %11
w: |||
 [CA] [B,G]2- [B,G]3- | [B,G]6 |] %13
w: ||
V:2
 B, D2 D D2 | C[K:bass] B,2- B,2- B,/ z/ | B, C2- C G,2- | G, G,2- G,2- G,/ z/ | %4
 B, A,2[K:treble] D D2 | D D2- D D2 | F, G,2 A, B,2 | G, G,2- G, F,2 | F, G,2- G, F,2- | %9
 F, E,2- E,2- E,/ z/ | G, G,2- G, F,2- | F, G,2- G,3- | G,6 |] %13
V:3
 G, G,2 G, D,2 | D, E,2- E,2- E,/ z/ | E, C,2- C, C,2- | C, G,,2- G,,2- G,,/ z/ | G,, D,2 D, D,2 | %5
 D, D,2- D, D,2 | .D,3 G, G,2 | z D,2- D, D,2 | D, G,,2- G,, B,,2- | B,, C,2- C,2- C,/ z/ | %10
 C, D,2- D, D,2- | D, G,,2- G,,3- | G,,6 |] %13

